scalable/devices/network-firewall.svg

<svg height="64" width="64" xmlns="http://www.w3.org/2000/svg"><circle cx="32" cy="32" fill="#ba3c37" r="26"/><path d="m32 6a26 26 0 0 0 -10 2.025v5.975h-8.72a26 26 0 0 0 -1.737 2h1.457v6h-4.992a26 26 0 0 0 -.73 2h14.722v7h-15.95a26 26 0 0 0 -.05 1 26 26 0 0 0 .035 1h6.965v7h-5.705a26 26 0 0 0 .73 2h13.975v6h-10.482a26 26 0 0 0 3.482 3.654v-1.654h16v6h-8.98a26 26 0 0 0 9.98 2 26 26 0 0 0 9.941-2h-8.941v-6h16v1.63a26 26 0 0 0 3.457-3.63h-10.457v-6h13.992a26 26 0 0 0 .73-2h-5.722v-7h6.95a26 26 0 0 0 .05-1 26 26 0 0 0 -.035-1h-15.965v-7h14.705a26 26 0 0 0 -.73-2h-4.975v-6h1.482a26 26 0 0 0 -1.73-2h-8.752v-5.992a26 26 0 0 0 -10-2.008zm-8 2h16v6h-16zm-9 8h16v6h-16zm18 0h16v6h-16zm-9 8h16v7h-16zm-9 9h16v7h-16zm18 0h16v7h-16zm-9 9h16v6h-16z" opacity=".1"/><g stroke-width=".556"><path d="m29.617 16.947c-.125 5.221-1.775 9.796-4.95 13.723-.125-1.546-.603-3.092-1.439-4.638-.083 1.17-.555 2.727-1.41 4.67-.857 1.941-1.39 3.349-1.598 4.226-.46 2.213-.199 4.156.783 5.827.981 1.67 2.913 3.32 5.795 4.95 4.36 1.698 6.043 1.78 9.65 0 2.047-1.17 3.676-2.455 4.887-3.855 1.212-1.399 1.983-2.756 2.317-4.072.334-1.315.427-2.673.281-4.072-.146-1.4-.478-2.663-1-3.791a23.692 23.692 0 0 0 -1.787-3.195c-.669-1.002-1.272-1.795-1.815-2.38s-.982-1.002-1.317-1.253c.293.794.396 1.65.313 2.57-.084.918-.29 1.754-.625 2.506-.125-1.253-.493-2.507-1.099-3.76-.605-1.253-1.252-2.288-1.941-3.103a19.505 19.505 0 0 0 -2.38-2.348c-.898-.752-1.516-1.242-1.85-1.471a16.65 16.65 0 0 0 -.815-.534z" fill="#ffd33f"/><path d="m36.448 45.705c1.378-2.757 1.65-5.733.814-8.928-.835-3.196-2.485-5.65-4.95-7.362.21.919.094 2.433-.344 4.542-.439 2.11-1.138 3.707-2.1 4.793.168-1.336.21-2.422.126-3.258-.083-.835-.209-1.461-.376-1.88l-.313-.563c-.25 1.504-.898 3.007-1.942 4.511-.543.794-.95 1.525-1.222 2.193-.271.668-.376 1.524-.313 2.569.062 1.044.386 2.172.97 3.383 0 0 1.652 1.348 3.493 1.348 4.462 0 4.665-.496 6.157-1.348z" fill="#fff3cb"/></g></svg>

<svg xmlns="http://www.w3.org/2000/svg" width="64" height="64" version="1"><circle cx="32" cy="32" r="26" fill="#ba3c37" paint-order="markers stroke fill"/><path d="M32 6a26 26 0 0 0-10 2.025V14h-8.72a26 26 0 0 0-1.737 2H13v6H8.008a26 26 0 0 0-.73 2H22v7H6.05A26 26 0 0 0 6 32a26 26 0 0 0 .035 1H13v7H7.295a26 26 0 0 0 .73 2H22v6H11.518A26 26 0 0 0 15 51.654V50h16v6h-8.98A26 26 0 0 0 32 58a26 26 0 0 0 9.941-2H33v-6h16v1.63A26 26 0 0 0 52.457 48H42v-6h13.992a26 26 0 0 0 .73-2H51v-7h6.95a26 26 0 0 0 .05-1 26 26 0 0 0-.035-1H42v-7h14.705a26 26 0 0 0-.73-2H51v-6h1.482a26 26 0 0 0-1.73-2H42V8.008A26 26 0 0 0 32 6zm-8 2h16v6H24V8zm-9 8h16v6H15v-6zm18 0h16v6H33v-6zm-9 8h16v7H24v-7zm-9 9h16v7H15v-7zm18 0h16v7H33v-7zm-9 9h16v6H24v-6z" opacity=".1" paint-order="markers stroke fill"/><g stroke-width=".556" color="#000"><path d="M29.617 16.947c-.125 5.221-1.775 9.796-4.95 13.723-.125-1.546-.603-3.092-1.439-4.638-.083 1.17-.555 2.727-1.41 4.67-.857 1.941-1.39 3.349-1.598 4.226-.46 2.213-.199 4.156.783 5.827.981 1.67 2.913 3.32 5.795 4.95 4.36 1.698 6.043 1.78 9.65 0 2.047-1.17 3.676-2.455 4.887-3.855 1.212-1.399 1.983-2.756 2.317-4.072.334-1.315.427-2.673.281-4.072-.146-1.4-.478-2.663-1-3.791a23.692 23.692 0 0 0-1.787-3.195c-.669-1.002-1.272-1.795-1.815-2.38-.543-.585-.982-1.002-1.317-1.253.293.794.396 1.65.313 2.57-.084.918-.29 1.754-.625 2.506-.125-1.253-.493-2.507-1.099-3.76-.605-1.253-1.252-2.288-1.941-3.103a19.505 19.505 0 0 0-2.38-2.348c-.898-.752-1.516-1.242-1.85-1.471a16.65 16.65 0 0 0-.815-.534z" style="isolation:auto;mix-blend-mode:normal;solid-color:#000;solid-opacity:1;marker:none" overflow="visible" fill="#ffd33f"/><path d="M36.448 45.705c1.378-2.757 1.65-5.733.814-8.928-.835-3.196-2.485-5.65-4.95-7.362.21.919.094 2.433-.344 4.542-.439 2.11-1.138 3.707-2.1 4.793.168-1.336.21-2.422.126-3.258-.083-.835-.209-1.461-.376-1.88l-.313-.563c-.25 1.504-.898 3.007-1.942 4.511-.543.794-.95 1.525-1.222 2.193-.271.668-.376 1.524-.313 2.569.062 1.044.386 2.172.97 3.383 0 0 1.652 1.348 3.493 1.348 4.462 0 4.665-.496 6.157-1.348z" style="isolation:auto;mix-blend-mode:normal;solid-color:#000;solid-opacity:1;marker:none" overflow="visible" fill="#fff3cb"/></g></svg>
